X: 48
T:Swiss Boy. GS.048
M:2/4
L:1/16
S:George Spencer m/s, Leeds,1831
R:Misc.
O:England
A:Leeds
N:A tune from an 18th century musical.  Unfortunately I can't
N:rememberwhich one
N:Much blotted by  a recalcitrant pen..Cherri.
H:1831
Z:vmp.Cherri Graebe
K:C major
EF | G2EF G2EF | G2ed c2cB | A2fe d2e2 | c4 c2EF | G2EF G2EF |! G2ed c2G
2 | G2fe d2e2 | "1"c4 c2 ||
G2 | G2dc B2G2 | A2ed c2G2 |! F2dc B2G2 | B2cd c2G2 | G2dc B2G2 | G2ed c
2G2 | G2fe d2ed | c6 ||
% 1 - this note is shown as a dotted crochet.
